X:1
T:Title
%%score { ( 1 3 ) | ( 2 4 ) }
L:1/8
Q:1/4=100
M:4/4
K:Db
V:1 treble nm="Grand Piano"
V:3 treble 
V:2 bass 
V:4 bass 
V:1
 (3[Fd][Fd][Fd] [Fc]>[Fc] [FB]>[FB] [FA]>[FA] | [DF]>[DF] [FA]>[FA] G4 | (3ccc B>B A>A G>G | %3
w: E.~S.~Howard * * * * * * * *|||
 F>F [GB]>[GB] [FA]4 | (3[Fd][Fd][Fd] [Fc]>[Fc] [FB]>[FB] [FA]>[FA] | [DF]>[DF] [FA]>[FA] B4 | %6
w: |||
 (3BBB c>B A>A d>d | c>c f>e [Fd]4 | [FA]6 z2 | A2 G2 G4 | c6 z2 | [GB]2 [FA]2 [FA]4 | [Fd]6 z2 | %13
w: |||||||
 e2 B2 e2 d2 | c6 z2 | d6 z2 |] %16
w: |||
V:2
 (3[D,A,][D,A,][D,A,] [D,D]>[D,D] [D,D]>[D,D] [D,D]>[D,D] | %1
 [D,A,]>[D,A,] [D,D]>[D,D][K:treble] [A,CE]4 | %2
 (3[A,EG][A,EG][A,EG] [A,CG]>[A,CG] [A,DF]>[A,DF][K:bass] [A,E]>[A,E] | %3
 [D,A,D]>[D,A,D] [D,D]>[D,D] [D,D]4 | (3[D,A,][D,A,][D,A,] [D,D]>[D,D] [D,D]>[D,D] [D,D]>[D,D] | %5
 [D,A,]>[D,A,] [D,D]>[D,D] [G,DG]4 | %6
 (3[G,DG][G,DG][G,DG] [G,D_F]>[G,DF][K:treble] [A,D=F]>[A,DF] [A,DF]>[A,DF] | %7
 [A,EG]>[A,EG] [A,DA]>[A,CG][K:bass] [D,D]4 | [D,D]2 D,2 D,>[D,D] [D,D]>[D,D] | %9
 [A,CF]2 [A,CE]2 [A,CE]4 | G6 z2 | [D,D]2 [D,D]2 [D,D]4 | [D,A,]2 D,2 D,>[D,A,] [E,A,]>[F,A,] | %13
 [G,B,G]2 [G,DG]2 [G,B,G]2 [G,B,G]2 | G6[K:bass] z2 | A,2 z2 z4 |] %16
V:3
 x8 | x8 | x8 | x8 | x8 | x8 | x8 | x8 | z2 D2 D>[FA] [GB]>[FA] | x8 | z2 E2 E>c B>c | x8 | %12
 z2 A,2 A,>[Fd] [Gc]>[Ad] | x8 | z2 E2 E>c [GB]>[Gc] | F2 G2 F2 z2 |] %16
V:4
 x8 | x4[K:treble] x4 | x6[K:bass] x2 | x8 | x8 | x8 | x4[K:treble] x4 | x4[K:bass] x4 | x8 | x8 | %10
 [A,E]2 A,2 A,>[A,EG] [A,DG]>[A,EG] | x8 | x8 | x8 | [A,E]2 A,2 A,>[A,EG][K:bass] [A,,A,]>[A,,A,] | %15
 D,2- [D,-B,]2 [D,A,]2 z2 |] %16

